X:78
T:78 Paddy Carrey
C:Welch MS
I:abc2nwc
M:6/8
L:1/8
K:G
D|:D2G GFG|B2G GFG|E2A A2B|cAG FED|D2G GFG|B2G G2z|FED DEF|GAB A2G:|
G2B c2e|d2e dBG|G2B c2e|dBG A2z|G2B c2e|d2e dBG|G3BAG|1FDF G2z:|2FDF G2B|]
c2A A2A|B2G G2G|F2G A2B|c2A F2D|c2A A2A|B2G G2z|FED DEF|GAB A2G:|

